X: 01055
T: INGALLS' JINGLE
C: Bob McQuillen Apr'74
B: Bob's Note Book 1 #55
%R: jig
Z: 2019 John Chambers <jc:trillian.mit.edu>
M: 6/8
L: 1/8
K: G
zd \
| g2d cBA | Bcd cBA | GAB cde | d4- d d | g2d cBA | Bcd cBA | GAB AGF | G4 :|
|| FG \
| A2G FGA | B2A GAB | cde dcB | A4 FG | A2G FGA | B2A GBd | dcB AGF | G4 FG |
| A2G FGA | B2A GAB | cde dcB | A4 zd | efg dz d | efg dz g | fed cBA | G4 |]
%%begintext align
%% This in your tune, Chuckie!
%%endtext

%%sep 1 1 500

%%sep 1 1 500

